X:4
%
%%barnumbers 0
%%barnumberfirst 10
%%topspace -0.5cm
%
L:1/4
M:C|
K:F
%
V:S clef=treble bracket=4
V:A clef=treble8
V:T clef=treble8
V:B clef=bass
%
[V:S] [|] z4 | z4 | z FAA | B3/2 A/G/F/ G | FBBB |
w: Qui-a re- spe**-*xit hu-mi-li-
[V:A] z4 | B4 | c2 z c | dd _e2 | d2 z G |
w: Qui-a, qui-a re-spe-xit hu-
[V:T] F4 | G4 | F4 | B4 | B2 z B |
w: Qui-a re-spe-xit hu-
[V:B] z Bdd | _e3/2 f/g/a/ b- | ba/g/ fa | g3/2 f/_e/d/ _e | B2 z _e |
w: Qui-a re-spe****-****-****xit hu-
%
%%vskip 0.5cm
%
[V:S] B2 GB | BB G>A | B/c/ d>c B- | B A/G/ A2 | B d2 c |
w: ta-tem an-ci-llae su***-****-*ae. E-cce
[V:A] GG G2 | FG G/A/B/c/ | d/e/ f2 f | f4 | f2 z f- |
w: mi-li-ta-tem an-ci***-**llae su-ae. E-
[V:T] BB B2 | B2 z B | B2 B2 | c4 | B2 z2 |
w:mi-li-ta-tem an-ci-llae su-ae.
[V:B] _ee e2 | B_e e2 | B4 | f4 | B b2 a |
w: mi-li-ta-tem an-ci-llae su-ae. E-cce
%
%%newpage
%
[V:S] B2 A2 | G2 F2 | z B2 A | G2 G2 | _E2 Dd | d2 B2 |
w: e-nim ex hoc, e-cce e-nim ex hoc be-a-tam
[V:A] fecd- | dc d2- | d4 | z _edB- | BA B2 | G2 zg |
w: -cce e-nim* ex hoc,* e-cce e - nim ex hoc be-
[V:T] z4 | z2z B- | BB GA | B2 B2 | z2z B | B2 BB |
w: E - cce e-nim ex hoc be-a-tam me
[V:B] G2F2 | _e2 B>A | Gg2 f | _e2 B2 | c2 G2 | z gg2 |
w: e-nim ex hoc,** e-cce e-nim ex hoc be-a-
%
[V:S] GB>AF | G/A/ B2 A | B F2 F | FF F2- | FE C2 |
w: me di -**-*-cent o-mnes ge-ne-ra - ti-o
[V:A] g2 fd | _e2 c2 | d4- | d4 | z4 |
w: a-tam me di - cent*
[V:T] B2 B2- | B2 z2 | z2 B2- | BBBB | B3A |
w: di-cent* o - mnes ge-ne-ra-ti-
[V:B] _e2 B2 | _e2 f2 | B2 z2 | B>BBB | de f2 |
w:tam me di - cent o-mnes ge-ne-ra-ti-o-
%
[V:S] D4 | z B2 B | BB B2- | BGF>G | AB A2 | =B4 |]
w: nes, o-mnes ge-ne-ra -ti-o*-**nes.
[V:A] B>BBA | G/A/B/c/ d_e | d3G | d4- | d4 | d4 |]
w: o-mnes ge-ne-ra**-*ti-o-*--nes.
[V:T] FG2 ^F | G2 B2- | BBBB | B3A | FG2 ^F | G4 |]
w: o *- nes, o - mnes ge-ne-ra-ti-o *- nes.
[V:B] B>G d2 | Gg2 g | gg g2 | G2 d2- | dG d2 | G4 |]
w: -** nes, o-mnes ge-ne-ra-ti-o -** nes.


%---------------------------------------------------------------------------
